packages/ffe-icons/icons/filled/md/looks_5.svg

<svg xmlns="http://www.w3.org/2000/svg" height="24" viewBox="0 -960 960 960" width="24"><path d="M517.692-290.001q30.308 0 51.307-21 21-20.999 21-51.307v-75.384q0-30.308-21-51.307-20.999-21-51.307-21h-87.693v-100.002H560q12.769 0 21.384-8.615T589.999-640q0-12.769-8.615-21.384T560-669.999H406.154q-15.461 0-25.807 10.346-10.346 10.346-10.346 25.807v147.692q0 15.461 10.346 25.807 10.346 10.346 25.807 10.346h111.538q5.385 0 8.847 3.462 3.462 3.462 3.462 8.847v75.384q0 5.385-3.462 8.847-3.462 3.462-8.847 3.462H400q-12.769 0-21.384 8.615T370.001-320q0 12.769 8.615 21.384T400-290.001h117.692Zm-305.383 150q-30.308 0-51.308-21t-21-51.308v-535.382q0-30.308 21-51.308t51.308-21h535.382q30.308 0 51.308 21t21 51.308v535.382q0 30.308-21 51.308t-51.308 21H212.309Z"/></svg>

<svg xmlns="http://www.w3.org/2000/svg" height="24" viewBox="0 -960 960 960" width="24"><path d="M517.69-290Q548-290 569-311q21-21 21-51.31v-75.38Q590-468 569-489q-21-21-51.31-21H430v-100h130q12.77 0 21.38-8.62Q590-627.23 590-640t-8.62-21.38Q572.77-670 560-670H406.15q-15.46 0-25.8 10.35Q370-649.31 370-633.85v147.7q0 15.46 10.35 25.8Q390.69-450 406.15-450h111.54q5.39 0 8.85 3.46t3.46 8.85v75.38q0 5.39-3.46 8.85t-8.85 3.46H400q-12.77 0-21.38 8.62Q370-332.77 370-320t8.62 21.38Q387.23-290 400-290h117.69ZM212.31-140Q182-140 161-161q-21-21-21-51.31v-535.38Q140-778 161-799q21-21 51.31-21h535.38Q778-820 799-799q21 21 21 51.31v535.38Q820-182 799-161q-21 21-51.31 21H212.31Z"/></svg>
